public/logoshort.svg

<svg clip-rule="evenodd" fill-rule="evenodd" stroke-linejoin="round" stroke-miterlimit="2" viewBox="0 0 787 501" xmlns="http://www.w3.org/2000/svg"><g fill="#d62328" fill-rule="nonzero"><path d="m0-49.133c-.751.736-1.518 1.623-2.299 2.599-2.118 2.66-4.312 6.206-6.416 10.969-.345.796-.691 1.638-1.036 2.509-.331.797-.646 1.623-.962 2.479-.376 1.052-.751 2.104-1.127 3.246l-8.88 27.331h-15.927v-14.184l4.568-13.989c.285-.916.541-1.803.766-2.689.241-.887.436-1.758.616-2.599.18-.902.331-1.774.451-2.615.225-1.532.361-3.005.361-4.372 0-2.404-.391-4.388-.992-6.086-.346-.961-.736-1.848-1.202-2.599z" transform="matrix(4.166667 0 0 4.166667 758.2194136767 204.7213414567)"/><path d="m0-27.887-9.075 27.887v-27.887z" transform="matrix(4.166667 0 0 4.166667 643.3385711529 408.8159411176)"/><path d="m0-66.563v72.798c0 .631-.03 1.202-.045 1.803-.075 2.434-.286 4.613-.601 6.521l-19.803-59.966-24.882 72.182h-22.043l-33.281-99.288c-3.651-10.758-7.918-17.099-11.735-20.825h42.057c-1.127 1.953-1.909 4.628-1.909 8.294 0 3.831.812 8.114 2.419 12.726l19.818 59.696 21.743-58.674-1.653-4.478c-3.201-8.789-6.131-14.229-8.565-17.564h36.647c-.255.375-.466.796-.676 1.217-.451.886-.857 1.833-1.142 2.915-.406 1.502-.646 3.185-.646 5.093 0 3.126.766 6.852 2.389 11.75z" transform="matrix(4.166667 0 0 4.166667 468.2918904825 388.9101061918)"/><path d="m0-21.667v21.081c-2.66-1.503-6.656-2.69-12.637-2.69h-21.44v32.906c0 1.803.089 3.425.21 4.973.18 2.194.466 4.147.841 5.875.842 3.892 2.104 6.731 3.516 8.745h-37.548c.766-.977 1.487-2.149 2.133-3.516.556-1.142 1.052-2.419 1.473-3.862.451-1.487.811-3.185 1.097-5.048.345-2.374.57-5.049.57-8.114v-79.98c0-7.107-1.442-12.141-3.44-15.777.586-1.667 1.427-2.9 2.329-3.816h32.695c.646.676 1.232 1.532 1.728 2.599.691 1.548 1.172 3.516 1.172 6.086 0 1.292-.135 2.764-.376 4.372-.135.826-.3 1.698-.496 2.614h-5.904v36.076h21.245c6.116 0 10.157-1.097 12.832-2.524" transform="matrix(4.166667 0 0 4.166667 736.6206619488 295.3763487091)"/><path d="m0-25.183v25.183c-2.99-3.907-7.317-7.167-13.793-8.655.33-.842.676-1.668 1.036-2.434 2.42-5.364 4.929-9.015 7.198-11.495.992-1.066 1.938-1.923 2.825-2.599z" transform="matrix(4.166667 0 0 4.166667 786.0160825671 104.9296668067)"/></g></svg>

<?xml version="1.0" encoding="UTF-8" standalone="no"?>
<!DOCTYPE svg PUBLIC "-//W3C//DTD SVG 1.1//EN" "http://www.w3.org/Graphics/SVG/1.1/DTD/svg11.dtd">
<svg width="100%" height="100%" viewBox="0 0 787 501" version="1.1" xmlns="http://www.w3.org/2000/svg" xmlns:xlink="http://www.w3.org/1999/xlink" xml:space="preserve" xmlns:serif="http://www.serif.com/" style="fill-rule:evenodd;clip-rule:evenodd;stroke-linejoin:round;stroke-miterlimit:2;">
    <g transform="matrix(1,0,0,1,-2329.40625,-6150.987917)">
        <g transform="matrix(4.166667,0,0,4.166667,0,0)">
            <g id="Logo-short" serif:id="Logo short">
                <g transform="matrix(1,0,0,1,741.0301,1525.3701)">
                    <path d="M0,-49.133C-0.751,-48.397 -1.518,-47.51 -2.299,-46.534C-4.417,-43.874 -6.611,-40.328 -8.715,-35.565C-9.06,-34.769 -9.406,-33.927 -9.751,-33.056C-10.082,-32.259 -10.397,-31.433 -10.713,-30.577C-11.089,-29.525 -11.464,-28.473 -11.84,-27.331L-20.72,0L-36.647,0L-36.647,-14.184L-32.079,-28.173C-31.794,-29.089 -31.538,-29.976 -31.313,-30.862C-31.072,-31.749 -30.877,-32.62 -30.697,-33.461C-30.517,-34.363 -30.366,-35.235 -30.246,-36.076C-30.021,-37.608 -29.885,-39.081 -29.885,-40.448C-29.885,-42.852 -30.276,-44.836 -30.877,-46.534C-31.223,-47.495 -31.613,-48.382 -32.079,-49.133L0,-49.133Z" style="fill:rgb(214,35,40);fill-rule:nonzero;"/>
                </g>
                <g transform="matrix(1,0,0,1,713.4587,1574.3528)">
                    <path d="M0,-27.887L-9.075,0L-9.075,-27.887L0,-27.887Z" style="fill:rgb(214,35,40);fill-rule:nonzero;"/>
                </g>
                <g transform="matrix(1,0,0,1,671.4475,1569.5754)">
                    <path d="M0,-66.563L0,6.235C0,6.866 -0.03,7.437 -0.045,8.038C-0.12,10.472 -0.331,12.651 -0.646,14.559L-20.449,-45.407L-45.331,26.775L-67.374,26.775L-100.655,-72.513C-104.306,-83.271 -108.573,-89.612 -112.39,-93.338L-70.333,-93.338C-71.46,-91.385 -72.242,-88.71 -72.242,-85.044C-72.242,-81.213 -71.43,-76.93 -69.823,-72.318L-50.005,-12.622L-28.262,-71.296L-29.915,-75.774C-33.116,-84.563 -36.046,-90.003 -38.48,-93.338L-1.833,-93.338C-2.088,-92.963 -2.299,-92.542 -2.509,-92.121C-2.96,-91.235 -3.366,-90.288 -3.651,-89.206C-4.057,-87.704 -4.297,-86.021 -4.297,-84.113C-4.297,-80.987 -3.531,-77.261 -1.908,-72.363L0,-66.563Z" style="fill:rgb(214,35,40);fill-rule:nonzero;"/>
                </g>
                <g transform="matrix(1,0,0,1,735.8464,1547.1273)">
                    <path d="M0,-21.667L0,-0.586C-2.66,-2.089 -6.656,-3.276 -12.637,-3.276L-34.077,-3.276L-34.077,29.63C-34.077,31.433 -33.988,33.055 -33.867,34.603C-33.687,36.797 -33.401,38.75 -33.026,40.478C-32.184,44.37 -30.922,47.209 -29.51,49.223L-67.058,49.223C-66.292,48.246 -65.571,47.074 -64.925,45.707C-64.369,44.565 -63.873,43.288 -63.452,41.845C-63.001,40.358 -62.641,38.66 -62.355,36.797C-62.01,34.423 -61.785,31.748 -61.785,28.683L-61.785,-51.297C-61.785,-58.404 -63.227,-63.438 -65.225,-67.074C-64.639,-68.741 -63.798,-69.974 -62.896,-70.89L-30.201,-70.89C-29.555,-70.214 -28.969,-69.358 -28.473,-68.291C-27.782,-66.743 -27.301,-64.775 -27.301,-62.205C-27.301,-60.913 -27.436,-59.441 -27.677,-57.833C-27.812,-57.007 -27.977,-56.135 -28.173,-55.219L-34.077,-55.219L-34.077,-19.143L-12.832,-19.143C-6.716,-19.143 -2.675,-20.24 0,-21.667" style="fill:rgb(214,35,40);fill-rule:nonzero;"/>
                </g>
                <g transform="matrix(1,0,0,1,747.7013,1501.4201)">
                    <path d="M0,-25.183L0,0C-2.99,-3.907 -7.317,-7.167 -13.793,-8.655C-13.463,-9.497 -13.117,-10.323 -12.757,-11.089C-10.337,-16.453 -7.828,-20.104 -5.559,-22.584C-4.567,-23.65 -3.621,-24.507 -2.734,-25.183L0,-25.183Z" style="fill:rgb(214,35,40);fill-rule:nonzero;"/>
                </g>
            </g>
        </g>
    </g>
</svg>
